X: 1
T:69. Waters of Tyne
I:abc2nwc
M:3/4
L:1/8
K:D
A2|"D"A2F2F2|"A"A2F2E2|"D"D2D3D|D4EF|
"G"G2G2F2|"A"E2F2A2|"G"B2B3B|"A"A4FE|"D"D2d3d|
d2e2f2|d2A3B|"G"B4cd|"D"A2F2A2|"A"A4FE|"D"D2D3D|D4|]

